day131/svg/technology.svg

<?xml version="1.0" encoding="iso-8859-1"?>
<!-- Generator: Adobe Illustrator 19.0.0, SVG Export Plug-In . SVG Version: 6.00 Build 0)  -->
<svg version="1.1" id="Capa_1" xmlns="http://www.w3.org/2000/svg" xmlns:xlink="http://www.w3.org/1999/xlink" x="0px" y="0px"
	 viewBox="0 0 512.002 512.002" style="enable-background:new 0 0 512.002 512.002;" xml:space="preserve">
<g>
	<g>
		<path d="M504.5,248.501H383.742v-17.064h32.581c4.142,0,7.5-3.358,7.5-7.5c0-4.142-3.358-7.5-7.5-7.5h-32.581v-17.065h22.62
			c8.427,0,16.35-3.281,22.308-9.24l49.326-49.326c3.214,1.601,6.777,2.453,10.473,2.453c6.286,0,12.195-2.448,16.64-6.892
			c4.445-4.445,6.893-10.354,6.893-16.64c0-6.286-2.448-12.195-6.893-16.64c-4.444-4.445-10.354-6.893-16.64-6.893
			s-12.195,2.448-16.64,6.892c-4.445,4.445-6.893,10.354-6.893,16.64c0,3.696,0.852,7.259,2.453,10.473l-49.326,49.326
			c-3.125,3.125-7.281,4.847-11.702,4.847h-22.62v-16.548c0-21.816-17.749-39.564-39.564-39.564h-16.548V61.865
			c9.308-3.139,16.032-11.946,16.032-22.3c0-12.976-10.557-23.532-23.532-23.532c-12.975,0-23.532,10.557-23.532,23.532
			c0,10.354,6.724,19.16,16.032,22.3v66.394h-17.064V95.678c0-4.142-3.358-7.5-7.5-7.5c-4.142,0-7.5,3.358-7.5,7.5v32.581H263.5
			V7.501c0-4.142-3.358-7.5-7.5-7.5c-4.142,0-7.5,3.358-7.5,7.5v120.758h-17.064V95.678c0-4.142-3.358-7.5-7.5-7.5
			c-4.142,0-7.5,3.358-7.5,7.5v32.581h-17.064V105.64c0-8.427-3.282-16.35-9.241-22.308l-49.343-49.343
			c4.359-8.801,2.898-19.775-4.421-27.095c-9.176-9.175-24.105-9.174-33.28,0c-9.175,9.175-9.175,24.104,0,33.28
			c4.588,4.587,10.614,6.881,16.64,6.881c3.588,0,7.17-0.833,10.455-2.46l49.343,49.344c3.126,3.125,4.847,7.281,4.847,11.701
			v22.619h-16.548c-3.345,0-6.672,0.42-9.888,1.247c-4.011,1.032-6.426,5.121-5.394,9.133c1.032,4.012,5.122,6.427,9.133,5.394
			c1.995-0.513,4.063-0.774,6.148-0.774h176.354c13.545,0,24.564,11.02,24.564,24.564v176.355c0,2.083-0.26,4.15-0.772,6.143
			c-1.031,4.012,1.385,8.1,5.396,9.131c0.626,0.161,1.254,0.238,1.873,0.238c3.341,0,6.388-2.249,7.258-5.635
			c0.826-3.212,1.245-6.536,1.245-9.878v-16.548h66.394c3.139,9.308,11.946,16.032,22.3,16.032
			c12.976,0,23.532-10.556,23.532-23.532s-10.557-23.532-23.532-23.532c-10.354,0-19.16,6.724-22.3,16.032h-66.394v-17.065h32.581
			c4.142,0,7.5-3.358,7.5-7.5c0-4.142-3.358-7.5-7.5-7.5h-32.581v-17.063H504.5c4.142,0,7.5-3.358,7.5-7.5
			C512,251.859,508.642,248.501,504.5,248.501z M482.435,113.694c1.612-1.612,3.754-2.499,6.033-2.499s4.421,0.887,6.033,2.499
			s2.499,3.754,2.499,6.033s-0.887,4.421-2.499,6.033s-3.754,2.499-6.033,2.499s-4.421-0.887-6.033-2.499s-2.499-3.754-2.499-6.033
			S480.823,115.305,482.435,113.694z M125.759,29.568c-3.326,3.325-8.739,3.326-12.067-0.001c-3.327-3.327-3.327-8.74,0-12.066
			c1.664-1.664,3.848-2.495,6.034-2.495c2.185,0,4.37,0.832,6.033,2.495C129.086,20.828,129.086,26.241,125.759,29.568z
			 M320.129,48.097c-4.704,0-8.532-3.828-8.532-8.532c0-4.704,3.827-8.532,8.532-8.532c4.705,0,8.532,3.828,8.532,8.532
			C328.661,44.269,324.833,48.097,320.129,48.097z M472.436,311.598c4.705,0,8.532,3.828,8.532,8.532
			c0,4.705-3.828,8.532-8.532,8.532c-4.704,0-8.532-3.828-8.532-8.532C463.903,315.425,467.731,311.598,472.436,311.598z"/>
	</g>
</g>
<g>
	<g>
		<path d="M408.914,471.829c-7.319-7.32-18.294-8.781-27.095-4.422l-49.343-49.344c-3.126-3.125-4.847-7.281-4.847-11.701v-22.619
			h16.548c3.345,0,6.671-0.42,9.886-1.247c4.011-1.032,6.426-5.121,5.394-9.133c-1.032-4.011-5.119-6.426-9.133-5.394
			c-1.994,0.513-4.062,0.773-6.147,0.773H167.823c-13.545,0-24.564-11.02-24.564-24.564V167.824c0-2.085,0.26-4.153,0.773-6.146
			c1.033-4.011-1.382-8.1-5.393-9.133c-4.012-1.033-8.101,1.382-9.133,5.393c-0.828,3.214-1.247,6.54-1.247,9.886v16.548H61.864
			c-3.139-9.308-11.946-16.032-22.3-16.032c-12.976,0-23.532,10.556-23.532,23.532c0,12.976,10.557,23.532,23.532,23.532
			c10.354,0,19.16-6.724,22.3-16.032h66.394v17.065H95.677c-4.142,0-7.5,3.358-7.5,7.5c0,4.142,3.358,7.5,7.5,7.5h32.581v17.064H7.5
			c-4.142,0-7.5,3.358-7.5,7.5c0,4.142,3.358,7.5,7.5,7.5h120.758v17.064H95.677c-4.142,0-7.5,3.358-7.5,7.5
			c0,4.142,3.358,7.5,7.5,7.5h32.581v17.065h-22.62c-8.427,0-16.35,3.281-22.308,9.24l-49.326,49.326
			c-3.214-1.601-6.777-2.453-10.473-2.453c-6.286,0-12.195,2.448-16.64,6.892C2.448,380.08,0,385.99,0,392.275
			s2.448,12.195,6.893,16.64c4.444,4.445,10.354,6.892,16.64,6.892c6.286,0,12.195-2.448,16.64-6.892
			c4.445-4.445,6.893-10.354,6.893-16.64c0-3.696-0.852-7.259-2.453-10.473l49.326-49.326c3.125-3.125,7.281-4.847,11.702-4.847
			h22.62v16.548c0,21.816,17.749,39.564,39.564,39.564h16.548v66.394c-9.308,3.139-16.032,11.946-16.032,22.3
			c0,12.976,10.557,23.532,23.532,23.532s23.532-10.557,23.532-23.532c0-10.354-6.724-19.16-16.032-22.3v-66.394h17.064v32.581
			c0,4.142,3.358,7.5,7.5,7.5c4.142,0,7.5-3.358,7.5-7.5v-32.581H248.5v120.76c0,4.142,3.358,7.5,7.5,7.5c4.142,0,7.5-3.358,7.5-7.5
			V383.743h17.064v32.581c0,4.142,3.358,7.5,7.5,7.5c4.142,0,7.5-3.358,7.5-7.5v-32.581h17.064v22.619
			c0,8.427,3.282,16.35,9.241,22.308l49.343,49.343c-4.359,8.801-2.898,19.775,4.422,27.095c4.587,4.588,10.614,6.881,16.64,6.881
			s12.053-2.293,16.64-6.881C418.089,495.933,418.089,481.004,408.914,471.829z M39.564,200.404c-4.705,0-8.532-3.828-8.532-8.532
			c0-4.705,3.828-8.532,8.532-8.532c4.704,0,8.532,3.828,8.532,8.532C48.097,196.577,44.269,200.404,39.564,200.404z
			 M29.565,398.308c-1.612,1.612-3.754,2.499-6.033,2.499s-4.421-0.887-6.033-2.499S15,394.554,15,392.275s0.887-4.421,2.499-6.033
			s3.754-2.499,6.033-2.499s4.421,0.887,6.033,2.499s2.499,3.754,2.499,6.033S31.177,396.697,29.565,398.308z M200.403,472.437
			c0,4.704-3.827,8.532-8.532,8.532c-4.705,0-8.532-3.828-8.532-8.532c0-4.704,3.828-8.532,8.532-8.532
			C196.575,463.905,200.403,467.733,200.403,472.437z M398.308,494.502c-3.327,3.327-8.74,3.326-12.067,0
			c-3.327-3.327-3.327-8.74,0-12.066c1.664-1.663,3.849-2.495,6.034-2.495s4.37,0.832,6.033,2.495
			C401.634,485.762,401.634,491.175,398.308,494.502z"/>
	</g>
</g>
<g>
	<g>
		<path d="M335.645,235.962c0-16.04-11.732-29.627-27.793-34.042c0.475-1.961,0.739-3.978,0.739-6.039
			c0-15.186-13.479-27.541-30.045-27.541c-8.974,0-17.035,3.629-22.545,9.365c-5.51-5.736-13.572-9.365-22.545-9.365
			c-16.567,0-30.045,12.355-30.045,27.541c0,2.061,0.264,4.078,0.739,6.039c-16.061,4.414-27.793,18.001-27.793,34.042
			c0,7.839,2.774,15.235,7.899,21.343c-5.011,6.487-7.899,14.362-7.899,22.746c-0.002,12.752,6.812,24.659,18.035,32.045
			c0,0.006,0,0.012,0,0.018c0,17.396,15.501,31.549,34.555,31.549c10.95,0,20.719-4.679,27.054-11.957
			c6.335,7.278,16.104,11.957,27.054,11.957c18.337,0,33.376-13.11,34.482-29.602c11.137-6.462,18.108-17.781,18.108-30.003
			c0-8.99-3.833-17.566-10.43-24.048C331.811,253.528,335.645,244.951,335.645,235.962z M309.101,266.642
			c7.227,3.814,11.541,10.325,11.541,17.416c0,5.287-2.457,10.33-6.607,14.101c-3.943-7.301-10.912-13.113-19.717-15.879
			c-3.95-1.241-8.161,0.956-9.403,4.907c-1.242,3.952,0.956,8.162,4.907,9.403c7.646,2.403,12.784,8.642,12.784,15.525
			c0,9.125-8.772,16.549-19.555,16.549c-10.782,0-19.554-7.424-19.554-16.549v-48.097c0-9.125,8.772-16.548,19.554-16.548
			c4.142,0,7.5-3.358,7.5-7.5c0-4.142-3.358-7.5-7.5-7.5c-7.254,0-13.99,2.056-19.554,5.557v-9.58c0-4.142-3.358-7.5-7.5-7.5
			c-4.142,0-7.5,3.358-7.5,7.5v41.637c-2.524-1.584-5.292-2.895-8.286-3.836c-3.954-1.242-8.162,0.956-9.403,4.906
			c-1.242,3.952,0.955,8.162,4.906,9.404c7.646,2.403,12.783,8.642,12.783,15.524v16.032c0,9.125-8.772,16.549-19.554,16.549
			c-10.783,0-19.555-7.424-19.555-16.549c0-3.911,1.658-7.713,4.668-10.705c2.938-2.92,2.952-7.669,0.032-10.607
			c-2.92-2.938-7.668-2.952-10.606-0.032c-1.797,1.787-3.344,3.739-4.63,5.814c-4.736-4.48-7.501-10.374-7.501-16.535
			c0-11.112,8.721-20.874,21.208-23.739c4.037-0.926,6.559-4.95,5.633-8.987c-0.926-4.038-4.951-6.559-8.987-5.633
			c-5.027,1.153-9.655,3.078-13.759,5.605c-2.661-3.342-4.094-7.256-4.094-11.335c0.003-11.281,10.697-20.465,23.88-20.552
			c0.067,0.002,0.134,0.011,0.2,0.011c1.712,0,3.433-0.583,4.842-1.776c2.875-2.434,3.452-6.564,1.522-9.671
			c-0.057-0.092-0.109-0.186-0.169-0.275c-0.031-0.045-0.068-0.088-0.1-0.133c-0.116-0.163-0.235-0.323-0.364-0.477
			c-0.004-0.005-0.007-0.01-0.011-0.014c-1.251-1.479-2.744-3.927-2.744-7.193c0-6.915,6.75-12.541,15.045-12.541
			c8.295,0,15.045,5.626,15.045,12.541c0,4.142,3.358,7.5,7.5,7.5c4.142,0,7.5-3.358,7.5-7.5c0-6.915,6.75-12.541,15.045-12.541
			c8.295,0,15.045,5.626,15.045,12.541c0,1.848-0.484,3.424-1.125,4.72c-4.266,0.403-8.392,1.434-12.309,3.086
			c-3.817,1.609-5.606,6.008-3.997,9.825c1.609,3.816,6.008,5.607,9.825,3.997c3.242-1.367,6.73-2.07,10.368-2.098
			c0.072,0.002,0.143,0.009,0.215,0.009c0.067,0,0.133-0.009,0.2-0.011c13.183,0.086,23.877,9.271,23.877,20.552
			c0,7.091-4.314,13.601-11.541,17.416c-2.46,1.298-4,3.851-4,6.633C305.101,262.791,306.641,265.344,309.101,266.642z"/>
	</g>
</g>
<g>
</g>
<g>
</g>
<g>
</g>
<g>
</g>
<g>
</g>
<g>
</g>
<g>
</g>
<g>
</g>
<g>
</g>
<g>
</g>
<g>
</g>
<g>
</g>
<g>
</g>
<g>
</g>
<g>
</g>
</svg>

<?xml version="1.0" encoding="UTF-8"?>
<svg width="513px" height="512px" viewBox="0 0 513 512" version="1.1" xmlns="http://www.w3.org/2000/svg" xmlns:xlink="http://www.w3.org/1999/xlink">
    <!-- Generator: Sketch 53.2 (72643) - https://sketchapp.com -->
    <title>Untitled 2</title>
    <desc>Created with Sketch.</desc>
    <g id="Page-1" stroke="none" stroke-width="1" fill="none" fill-rule="evenodd">
        <g id="technology" fill="#BBBBBB" fill-rule="nonzero">
            <path d="M504.5,248.501 L383.742,248.501 L383.742,231.437 L416.323,231.437 C420.465,231.437 423.823,228.079 423.823,223.937 C423.823,219.795 420.465,216.437 416.323,216.437 L383.742,216.437 L383.742,199.372 L406.362,199.372 C414.789,199.372 422.712,196.091 428.67,190.132 L477.996,140.806 C481.21,142.407 484.773,143.259 488.469,143.259 C494.755,143.259 500.664,140.811 505.109,136.367 C509.554,131.922 512.002,126.013 512.002,119.727 C512.002,113.441 509.554,107.532 505.109,103.087 C500.665,98.642 494.755,96.194 488.469,96.194 C482.183,96.194 476.274,98.642 471.829,103.086 C467.384,107.531 464.936,113.44 464.936,119.726 C464.936,123.422 465.788,126.985 467.389,130.199 L418.063,179.525 C414.938,182.65 410.782,184.372 406.361,184.372 L383.741,184.372 L383.741,167.824 C383.741,146.008 365.992,128.26 344.177,128.26 L327.629,128.26 L327.629,61.865 C336.937,58.726 343.661,49.919 343.661,39.565 C343.661,26.589 333.104,16.033 320.129,16.033 C307.154,16.033 296.597,26.59 296.597,39.565 C296.597,49.919 303.321,58.725 312.629,61.865 L312.629,128.259 L295.565,128.259 L295.565,95.678 C295.565,91.536 292.207,88.178 288.065,88.178 C283.923,88.178 280.565,91.536 280.565,95.678 L280.565,128.259 L263.5,128.259 L263.5,7.501 C263.5,3.359 260.142,0.001 256,0.001 C251.858,0.001 248.5,3.359 248.5,7.501 L248.5,128.259 L231.436,128.259 L231.436,95.678 C231.436,91.536 228.078,88.178 223.936,88.178 C219.794,88.178 216.436,91.536 216.436,95.678 L216.436,128.259 L199.372,128.259 L199.372,105.64 C199.372,97.213 196.09,89.29 190.131,83.332 L140.788,33.989 C145.147,25.188 143.686,14.214 136.367,6.894 C127.191,-2.281 112.262,-2.28 103.087,6.894 C93.912,16.069 93.912,30.998 103.087,40.174 C107.675,44.761 113.701,47.055 119.727,47.055 C123.315,47.055 126.897,46.222 130.182,44.595 L179.525,93.939 C182.651,97.064 184.372,101.22 184.372,105.64 L184.372,128.259 L167.824,128.259 C164.479,128.259 161.152,128.679 157.936,129.506 C153.925,130.538 151.51,134.627 152.542,138.639 C153.574,142.651 157.664,145.066 161.675,144.033 C163.67,143.52 165.738,143.259 167.823,143.259 L344.177,143.259 C357.722,143.259 368.741,154.279 368.741,167.823 L368.741,344.178 C368.741,346.261 368.481,348.328 367.969,350.321 C366.938,354.333 369.354,358.421 373.365,359.452 C373.991,359.613 374.619,359.69 375.238,359.69 C378.579,359.69 381.626,357.441 382.496,354.055 C383.322,350.843 383.741,347.519 383.741,344.177 L383.741,327.629 L450.135,327.629 C453.274,336.937 462.081,343.661 472.435,343.661 C485.411,343.661 495.967,333.105 495.967,320.129 C495.967,307.153 485.41,296.597 472.435,296.597 C462.081,296.597 453.275,303.321 450.135,312.629 L383.741,312.629 L383.741,295.564 L416.322,295.564 C420.464,295.564 423.822,292.206 423.822,288.064 C423.822,283.922 420.464,280.564 416.322,280.564 L383.741,280.564 L383.741,263.501 L504.5,263.501 C508.642,263.501 512,260.143 512,256.001 C512,251.859 508.642,248.501 504.5,248.501 Z M482.435,113.694 C484.047,112.082 486.189,111.195 488.468,111.195 C490.747,111.195 492.889,112.082 494.501,113.694 C496.113,115.306 497,117.448 497,119.727 C497,122.006 496.113,124.148 494.501,125.76 C492.889,127.372 490.747,128.259 488.468,128.259 C486.189,128.259 484.047,127.372 482.435,125.76 C480.823,124.148 479.936,122.006 479.936,119.727 C479.936,117.448 480.823,115.305 482.435,113.694 Z M125.759,29.568 C122.433,32.893 117.02,32.894 113.692,29.567 C110.365,26.24 110.365,20.827 113.692,17.501 C115.356,15.837 117.54,15.006 119.726,15.006 C121.911,15.006 124.096,15.838 125.759,17.501 C129.086,20.828 129.086,26.241 125.759,29.568 Z M320.129,48.097 C315.425,48.097 311.597,44.269 311.597,39.565 C311.597,34.861 315.424,31.033 320.129,31.033 C324.834,31.033 328.661,34.861 328.661,39.565 C328.661,44.269 324.833,48.097 320.129,48.097 Z M472.436,311.598 C477.141,311.598 480.968,315.426 480.968,320.13 C480.968,324.835 477.14,328.662 472.436,328.662 C467.732,328.662 463.904,324.834 463.904,320.13 C463.903,315.425 467.731,311.598 472.436,311.598 Z" id="Shape"></path>
            <path d="M408.914,471.829 C401.595,464.509 390.62,463.048 381.819,467.407 L332.476,418.063 C329.35,414.938 327.629,410.782 327.629,406.362 L327.629,383.743 L344.177,383.743 C347.522,383.743 350.848,383.323 354.063,382.496 C358.074,381.464 360.489,377.375 359.457,373.363 C358.425,369.352 354.338,366.937 350.324,367.969 C348.33,368.482 346.262,368.742 344.177,368.742 L167.823,368.742 C154.278,368.742 143.259,357.722 143.259,344.178 L143.259,167.824 C143.259,165.739 143.519,163.671 144.032,161.678 C145.065,157.667 142.65,153.578 138.639,152.545 C134.627,151.512 130.538,153.927 129.506,157.938 C128.678,161.152 128.259,164.478 128.259,167.824 L128.259,184.372 L61.864,184.372 C58.725,175.064 49.918,168.34 39.564,168.34 C26.588,168.34 16.032,178.896 16.032,191.872 C16.032,204.848 26.589,215.404 39.564,215.404 C49.918,215.404 58.724,208.68 61.864,199.372 L128.258,199.372 L128.258,216.437 L95.677,216.437 C91.535,216.437 88.177,219.795 88.177,223.937 C88.177,228.079 91.535,231.437 95.677,231.437 L128.258,231.437 L128.258,248.501 L7.5,248.501 C3.358,248.501 0,251.859 0,256.001 C0,260.143 3.358,263.501 7.5,263.501 L128.258,263.501 L128.258,280.565 L95.677,280.565 C91.535,280.565 88.177,283.923 88.177,288.065 C88.177,292.207 91.535,295.565 95.677,295.565 L128.258,295.565 L128.258,312.63 L105.638,312.63 C97.211,312.63 89.288,315.911 83.33,321.87 L34.004,371.196 C30.79,369.595 27.227,368.743 23.531,368.743 C17.245,368.743 11.336,371.191 6.891,375.635 C2.448,380.08 0,385.99 0,392.275 C0,398.56 2.448,404.47 6.893,408.915 C11.337,413.36 17.247,415.807 23.533,415.807 C29.819,415.807 35.728,413.359 40.173,408.915 C44.618,404.47 47.066,398.561 47.066,392.275 C47.066,388.579 46.214,385.016 44.613,381.802 L93.939,332.476 C97.064,329.351 101.22,327.629 105.641,327.629 L128.261,327.629 L128.261,344.177 C128.261,365.993 146.01,383.741 167.825,383.741 L184.373,383.741 L184.373,450.135 C175.065,453.274 168.341,462.081 168.341,472.435 C168.341,485.411 178.898,495.967 191.873,495.967 C204.848,495.967 215.405,485.41 215.405,472.435 C215.405,462.081 208.681,453.275 199.373,450.135 L199.373,383.741 L216.437,383.741 L216.437,416.322 C216.437,420.464 219.795,423.822 223.937,423.822 C228.079,423.822 231.437,420.464 231.437,416.322 L231.437,383.741 L248.5,383.741 L248.5,504.501 C248.5,508.643 251.858,512.001 256,512.001 C260.142,512.001 263.5,508.643 263.5,504.501 L263.5,383.743 L280.564,383.743 L280.564,416.324 C280.564,420.466 283.922,423.824 288.064,423.824 C292.206,423.824 295.564,420.466 295.564,416.324 L295.564,383.743 L312.628,383.743 L312.628,406.362 C312.628,414.789 315.91,422.712 321.869,428.67 L371.212,478.013 C366.853,486.814 368.314,497.788 375.634,505.108 C380.221,509.696 386.248,511.989 392.274,511.989 C398.3,511.989 404.327,509.696 408.914,505.108 C418.089,495.933 418.089,481.004 408.914,471.829 Z M39.564,200.404 C34.859,200.404 31.032,196.576 31.032,191.872 C31.032,187.167 34.86,183.34 39.564,183.34 C44.268,183.34 48.096,187.168 48.096,191.872 C48.097,196.577 44.269,200.404 39.564,200.404 Z M29.565,398.308 C27.953,399.92 25.811,400.807 23.532,400.807 C21.253,400.807 19.111,399.92 17.499,398.308 C15.887,396.696 15,394.554 15,392.275 C15,389.996 15.887,387.854 17.499,386.242 C19.111,384.63 21.253,383.743 23.532,383.743 C25.811,383.743 27.953,384.63 29.565,386.242 C31.177,387.854 32.064,389.996 32.064,392.275 C32.064,394.554 31.177,396.697 29.565,398.308 Z M200.403,472.437 C200.403,477.141 196.576,480.969 191.871,480.969 C187.166,480.969 183.339,477.141 183.339,472.437 C183.339,467.733 187.167,463.905 191.871,463.905 C196.575,463.905 200.403,467.733 200.403,472.437 Z M398.308,494.502 C394.981,497.829 389.568,497.828 386.241,494.502 C382.914,491.175 382.914,485.762 386.241,482.436 C387.905,480.773 390.09,479.941 392.275,479.941 C394.46,479.941 396.645,480.773 398.308,482.436 C401.634,485.762 401.634,491.175 398.308,494.502 Z" id="Shape"></path>
            <path d="M335.645,235.962 C335.645,219.922 323.913,206.335 307.852,201.92 C308.327,199.959 308.591,197.942 308.591,195.881 C308.591,180.695 295.112,168.34 278.546,168.34 C269.572,168.34 261.511,171.969 256.001,177.705 C250.491,171.969 242.429,168.34 233.456,168.34 C216.889,168.34 203.411,180.695 203.411,195.881 C203.411,197.942 203.675,199.959 204.15,201.92 C188.089,206.334 176.357,219.921 176.357,235.962 C176.357,243.801 179.131,251.197 184.256,257.305 C179.245,263.792 176.357,271.667 176.357,280.051 C176.355,292.803 183.169,304.71 194.392,312.096 C194.392,312.102 194.392,312.108 194.392,312.114 C194.392,329.51 209.893,343.663 228.947,343.663 C239.897,343.663 249.666,338.984 256.001,331.706 C262.336,338.984 272.105,343.663 283.055,343.663 C301.392,343.663 316.431,330.553 317.537,314.061 C328.674,307.599 335.645,296.28 335.645,284.058 C335.645,275.068 331.812,266.492 325.215,260.01 C331.811,253.528 335.645,244.951 335.645,235.962 Z M309.101,266.642 C316.328,270.456 320.642,276.967 320.642,284.058 C320.642,289.345 318.185,294.388 314.035,298.159 C310.092,290.858 303.123,285.046 294.318,282.28 C290.368,281.039 286.157,283.236 284.915,287.187 C283.673,291.139 285.871,295.349 289.822,296.59 C297.468,298.993 302.606,305.232 302.606,312.115 C302.606,321.24 293.834,328.664 283.051,328.664 C272.269,328.664 263.497,321.24 263.497,312.115 L263.497,264.018 C263.497,254.893 272.269,247.47 283.051,247.47 C287.193,247.47 290.551,244.112 290.551,239.97 C290.551,235.828 287.193,232.47 283.051,232.47 C275.797,232.47 269.061,234.526 263.497,238.027 L263.497,228.447 C263.497,224.305 260.139,220.947 255.997,220.947 C251.855,220.947 248.497,224.305 248.497,228.447 L248.497,270.084 C245.973,268.5 243.205,267.189 240.211,266.248 C236.257,265.006 232.049,267.204 230.808,271.154 C229.566,275.106 231.763,279.316 235.714,280.558 C243.36,282.961 248.497,289.2 248.497,296.082 L248.497,312.114 C248.497,321.239 239.725,328.663 228.943,328.663 C218.16,328.663 209.388,321.239 209.388,312.114 C209.388,308.203 211.046,304.401 214.056,301.409 C216.994,298.489 217.008,293.74 214.088,290.802 C211.168,287.864 206.42,287.85 203.482,290.77 C201.685,292.557 200.138,294.509 198.852,296.584 C194.116,292.104 191.351,286.21 191.351,280.049 C191.351,268.937 200.072,259.175 212.559,256.31 C216.596,255.384 219.118,251.36 218.192,247.323 C217.266,243.285 213.241,240.764 209.205,241.69 C204.178,242.843 199.55,244.768 195.446,247.295 C192.785,243.953 191.352,240.039 191.352,235.96 C191.355,224.679 202.049,215.495 215.232,215.408 C215.299,215.41 215.366,215.419 215.432,215.419 C217.144,215.419 218.865,214.836 220.274,213.643 C223.149,211.209 223.726,207.079 221.796,203.972 C221.739,203.88 221.687,203.786 221.627,203.697 C221.596,203.652 221.559,203.609 221.527,203.564 C221.411,203.401 221.292,203.241 221.163,203.087 C221.159,203.082 221.156,203.077 221.152,203.073 C219.901,201.594 218.408,199.146 218.408,195.88 C218.408,188.965 225.158,183.339 233.453,183.339 C241.748,183.339 248.498,188.965 248.498,195.88 C248.498,200.022 251.856,203.38 255.998,203.38 C260.14,203.38 263.498,200.022 263.498,195.88 C263.498,188.965 270.248,183.339 278.543,183.339 C286.838,183.339 293.588,188.965 293.588,195.88 C293.588,197.728 293.104,199.304 292.463,200.6 C288.197,201.003 284.071,202.034 280.154,203.686 C276.337,205.295 274.548,209.694 276.157,213.511 C277.766,217.327 282.165,219.118 285.982,217.508 C289.224,216.141 292.712,215.438 296.35,215.41 C296.422,215.412 296.493,215.419 296.565,215.419 C296.632,215.419 296.698,215.41 296.765,215.408 C309.948,215.494 320.642,224.679 320.642,235.96 C320.642,243.051 316.328,249.561 309.101,253.376 C306.641,254.674 305.101,257.227 305.101,260.009 C305.101,262.791 306.641,265.344 309.101,266.642 Z" id="Shape"></path>
        </g>
    </g>
</svg>
